honk-commie.svg

<svg clip-rule="evenodd" fill-rule="evenodd" stroke-linejoin="round" stroke-miterlimit="2" viewBox="0 0 732 752" xmlns="http://www.w3.org/2000/svg"><g fill-rule="nonzero" transform="translate(-7.9187 -142.14)"><path d="m397.35 238.22c3.94-2.25 9.9 1.05 9.22 5.79.51 4.66-5.85 6.72-9.36 4.95-4.04-1.99-4.31-9.08.14-10.74z"/><path d="m486.62 142.53c2.98-1.38 5.63 1.23 7.96 2.73 14.12 9.79 23.86 25.49 26.57 42.43 1.57 9.4-.1 18.89-.03 28.33.63 5.91 4.71 11.12 9.85 13.91 7.38 4.18 12.32 12.19 12.91 20.63.25 2.11.29 4.25.68 6.35 5.13 7.51 11.79 13.98 16.08 22.07-14.95 7.48-28.17 17.94-40.05 29.61-4.07 4.34-8.36 8.58-11.58 13.61 43.38 6.38 86.79 12.6 130.19 18.84 5.53.53 10.98 1.97 16.57 1.55.82-9.43 2.68-18.72 3.86-28.1.76-4.59.92-9.3 2.24-13.78.21-.19.62-.56.83-.74 16.07 2.08 32.08 4.76 48.16 6.78.06 6.84-1.25 13.58-2.28 20.32-3.78 27.1-7.83 54.17-11.5 81.28-.56.96-1.47 1.63-2.39 2.2-15.5 8.92-31.04 17.79-46.47 26.85-1.95 1.12-3.97 2.09-6.05 2.93-.05-7.08 1.52-14.01 2.35-21 1.84-11.81 3.44-23.65 5.09-35.48-54.25-7.88-108.53-15.71-162.8-23.5-9.47 25.31-9.37 53.75-1.38 79.44 12.01 37.18 42.9 68.35 80.91 78.53 21 5.73 43.08 6.23 64.65 4.19 16.62-1.58 32.85-6.97 47.21-15.49 17.98-10.59 33.41-25.13 46.35-41.42 5.22-6.25 9.42-13.26 14.42-19.67-14.68 33.84-41.15 62.31-73.67 79.67-24.01 12.48-49.77 22.43-76.81 25.55-20.07 1.55-40.35-.31-59.83-5.39-17.74-3.92-33.62-13.54-47.96-24.39-28.74-21.9-50.63-54.15-55.84-90.34-.89-9.64-1.94-19.36-.78-29.03.57-16.97 5.48-33.43 11.66-49.13-24.79-3.51-49.56-7.16-74.33-10.85-15.47-2.3-31.06-3.9-46.4-7.06-4.2-.73-7.07-4.77-7.28-8.88-.38-6.78 1.7-13.37 2.32-20.08.25-6.36 6.39-12.05 12.86-10.77 13.11 1.8 26.02 5.24 39.29 5.95 18.37 2.56 36.73 5.18 55.08 7.93 2.81.39 5.65.42 8.48.44 11 5.9 21.27 13.03 31.25 20.49 3.8 2.54 8.04 5.59 12.84 5.03 5.09-1.39 9.21-4.92 13.85-7.29 3.86-2.34 8.8-4.36 10.26-9.05 1.39-4.2.03-8.7-2.4-12.22-3-4.52-6.09-8.99-9.25-13.4 12.09-11.32 26.52-19.7 40.72-28.06-6.44-4.72-11.08-12-11.49-20.09-.51-6.13 1.59-12.84-1.88-18.43-2.32-4.25-6.26-7.27-10.3-9.78-14.09-9.28-25.63-23.42-29.26-40.15-1.98-7.65-2.21-15.76-1.01-23.55.14-2.59 2.93-3.27 4.78-4.37 4.29-1.97 8.37-4.39 12.75-6.15z" fill="#ffc627"/><path d="m372.73 205.53c4.5-.86 8.6-3.39 13.28-3.27 4.84.08 10.03-.79 14.52 1.45 9.57 4.22 19.83 7.15 28.53 13.14 9.36 6.24 16.6 16.08 18.41 27.29-1.08 2.87-1.96 5.95-3.94 8.35-3.91 1.87-8.49 1.13-12.54 2.52-1.85 1.53-2.88 3.78-3.97 5.86-5.89 12.56-12.5 24.77-17.83 37.58-6.54-3.11-13.43-5.4-19.87-8.73-3.88-1.78-7.87-4.58-12.36-3.31-7.07 2.06-11.9 8.27-14.76 14.77-13.27-.71-26.18-4.15-39.29-5.95-6.47-1.28-12.61 4.41-12.86 10.77-.62 6.71-2.7 13.3-2.32 20.08.21 4.11 3.08 8.15 7.28 8.88 15.34 3.16 30.93 4.76 46.4 7.06.27 9.13 2.67 17.99 4.79 26.82 2.28 7.66 5.12 15.16 7.23 22.89 3.39 12.61 5.84 25.49 10.29 37.79 2.08 3.71 5.55 6.3 8.31 9.46 19.23 21.78 28.19 52.31 23.51 81-1.6 10.92-5.22 21.39-9.34 31.58-5.71 11.99-12.86 23.24-20.79 33.88-4.53 5.45-10.1 9.95-14.46 15.54-5.9 5.89-11.59 12.11-15.8 19.35-3.07 5.45-2.73 12.23-6.5 17.35-3.53 5.25-8.46 10.59-14.87 11.88-3.76-.76-7.61-1.85-11.45-1.06-4.11.82-7.26 3.79-10.53 6.18-2.19 1.56-4.64 2.71-6.98 4.01-16.62 7.19-32.05 16.76-48.32 24.64-3.8 1.69-7.66 3.2-11.65 4.39-6.44 3.26-11.14 8.92-16.34 13.77-5.38 4.53-10.34 9.51-15.81 13.94-.07.06-.2.17-.27.23-7.57 6.35-14.82 13.07-22.35 19.47-3.95 1.42-8.25 2.62-12.45 1.66-3.71-.76-7.09-2.56-10.33-4.45-7.74-5.65-11.62-14.79-17.44-22.15-10.19-15.58-20.28-31.49-26.71-49.08-1.85-4.42-2.42-9.25-4.32-13.66-4.22-7.94-9.11-15.53-14.58-22.66-5.66-5.88-9.65-13.05-14.16-19.79-7.91-13.2-15.14-26.92-20.29-41.45-.6-2.51-.93-5.08-1.71-7.54-1.17-3.52-.3-7.28-.91-10.87-2.59-7.29-6.19-14.25-10.84-20.45-5.36-6.94-11.5-13.21-16.92-20.1-12.46-15.91-22.59-34.1-26.81-54.01-3.84-13.05-5.76-26.8-4.08-40.36 1.71-7.95 9.49-12.77 16.89-14.56 6.37-.84 13.01-.39 19 2.09 16.81 4.84 31.47 15.23 48.49 19.51 13.43 3.62 27.48 1.6 41.05.1 5.07.27 9.99-1.13 15.04-1.09 15.12-1.43 30.32-1.92 45.3-4.59 10.73-.3 20.91-4.06 31.46-5.63 7.47-1.72 15.03-3.14 22.66-3.94 10.05-2.05 20.33-2.84 30.59-2.91 4.57-.02 9.27-.21 13.66 1.35 4.76-12.45 8.44-25.36 10.7-38.5.89-11.67-.18-23.41.51-35.09.97-5.05.13-10.22.89-15.29 1.35-13.49-1.34-28.02 5.22-40.52 10.42-21.84 26.51-41.07 46.54-54.72 5.18-3.89 9.87-8.9 16.2-10.9m24.62 32.69c-4.45 1.66-4.18 8.75-.14 10.74 3.51 1.77 9.87-.29 9.36-4.95.68-4.74-5.28-8.04-9.22-5.79z" fill="#fff"/><g fill="#f6842e"><path d="m447.47 244.14c1.62 1.49 3.36 2.9 4.72 4.65 10.19 14.67 19.71 29.81 30.12 44.32 3.16 4.41 6.25 8.88 9.25 13.4 2.43 3.52 3.79 8.02 2.4 12.22-1.46 4.69-6.4 6.71-10.26 9.05-4.64 2.37-8.76 5.9-13.85 7.29-4.8.56-9.04-2.49-12.84-5.03-9.98-7.46-20.25-14.59-31.25-20.49-4.84-4.63-10.85-7.72-16.57-11.1 5.33-12.81 11.94-25.02 17.83-37.58 1.09-2.08 2.12-4.33 3.97-5.86 4.05-1.39 8.63-.65 12.54-2.52 1.98-2.4 2.86-5.48 3.94-8.35z"/><path d="m322.33 648.5c3.84-.79 7.69.3 11.45 1.06.83 3.46 1.65 6.95 1.91 10.51 1.38 17.6 5.33 34.9 10.46 51.73 1.18 3.64 4.91 5.2 8.38 5.82 6.91 2.2 14.24 1.28 21.29 2.69 5.27 1.15 10.67.76 16.01 1.08 10.29 1.51 20.73.52 31.09.88 2.51.25 5.4.85 6.85 3.16 1.13 5.85-4.97 9.21-7.63 13.6 5.95 5.24 13.78 9.1 17.14 16.68 1.83 3.72-1.39 7.29-4.16 9.41-4.93 3.3-10.97 4.26-16.71 5.21-4.26.83-8.74.02-12.88 1.57.9 6.51 2.02 13.14 1.01 19.71-.68 3.18-4.28 4.85-7.28 4.12-5.41-1.15-9.94-4.51-14.31-7.69-7.56-6.1-15.01-12.34-22.34-18.7-12.41-10.17-23.39-21.91-34.77-33.2-2.25-2.44-4.66-5.07-5.53-8.34-.64-6.58.29-13.2.05-19.79.28-8.41-1.91-16.6-3.45-24.79-1.63-9.7-6.2-18.7-7.11-28.54 3.27-2.39 6.42-5.36 10.53-6.18z"/><path d="m212.43 715.66c.07-.06.2-.17.27-.23-.07.06-.2.17-.27.23z"/><path d="m167.3 732.34c3.24 1.89 6.62 3.69 10.33 4.45 4.2.96 8.5-.24 12.45-1.66-.84.97-1.69 1.93-2.53 2.91.94 9.3-.3 18.71 1.1 27.99-.1 6.36 1.13 12.63 1.18 18.98.55 5.37 1.33 11.05 4.52 15.57 2.12 3.63 5.88 5.8 9.54 7.61 13.84 5.72 26.92 13.07 40.39 19.56 8.55 3.96 16.13 9.77 25.02 13 7.29 3.85 17.01 4.67 21.69 12.26 1.7 2.03.15 5-1.93 6.08-4.83 3.05-10.76 1.81-16.1 2.93-5.88 1.28-12.47-2.71-17.77 1.27-6.75 4.85-5.64 14.06-6.62 21.34-1.65 2.82-4.97 4.77-8.29 4.05-10.32-1.52-18.59-8.56-28.36-11.7-3.35-1.05-7.36-3.12-10.61-.67-4.28 3.41-4.59 9.36-5.8 14.29-.73 4.18-6.15 3.25-9.28 3.17-3.81-1.35-6.63-5.63-6.02-9.77.6-11.24 3.32-22.47 1.64-33.75-1.97-12.72-5.41-25.24-5.88-38.15-1.96-10.67-2.07-21.53-3.57-32.27-.07-6.14-.62-12.24-1.8-18.28-.73-9.77-1.55-19.56-3.3-29.21z"/></g></g></svg>

<svg xmlns="http://www.w3.org/2000/svg" fill-rule="evenodd" stroke-linejoin="round" stroke-miterlimit="2" clip-rule="evenodd" viewBox="0 0 732 752"><g fill-rule="nonzero"><path d="M397.35,238.22C401.29,235.97 407.25,239.27 406.57,244.01C407.08,248.67 400.72,250.73 397.21,248.96C393.17,246.97 392.9,239.88 397.35,238.22Z" transform="matrix(1,0,0,1,-7.9187,-142.14)"/><path fill="#ffc627" d="M486.62,142.53C489.6,141.15 492.25,143.76 494.58,145.26C508.7,155.05 518.44,170.75 521.15,187.69C522.72,197.09 521.05,206.58 521.12,216.02C521.75,221.93 525.83,227.14 530.97,229.93C538.35,234.11 543.29,242.12 543.88,250.56C544.13,252.67 544.17,254.81 544.56,256.91C549.69,264.42 556.35,270.89 560.64,278.98C545.69,286.46 532.47,296.92 520.59,308.59C516.52,312.93 512.23,317.17 509.01,322.2C552.39,328.58 595.8,334.8 639.2,341.04C644.73,341.57 650.18,343.01 655.77,342.59C656.59,333.16 658.45,323.87 659.63,314.49C660.39,309.9 660.55,305.19 661.87,300.71C662.08,300.52 662.49,300.15 662.7,299.97C678.77,302.05 694.78,304.73 710.86,306.75C710.92,313.59 709.61,320.33 708.58,327.07C704.8,354.17 700.75,381.24 697.08,408.35C696.52,409.31 695.61,409.98 694.69,410.55C679.19,419.47 663.65,428.34 648.22,437.4C646.27,438.52 644.25,439.49 642.17,440.33C642.12,433.25 643.69,426.32 644.52,419.33C646.36,407.52 647.96,395.68 649.61,383.85C595.36,375.97 541.08,368.14 486.81,360.35C477.34,385.66 477.44,414.1 485.43,439.79C497.44,476.97 528.33,508.14 566.34,518.32C587.34,524.05 609.42,524.55 630.99,522.51C647.61,520.93 663.84,515.54 678.2,507.02C696.18,496.43 711.61,481.89 724.55,465.6C729.77,459.35 733.97,452.34 738.97,445.93C724.29,479.77 697.82,508.24 665.3,525.6C641.29,538.08 615.53,548.03 588.49,551.15C568.42,552.7 548.14,550.84 528.66,545.76C510.92,541.84 495.04,532.22 480.7,521.37C451.96,499.47 430.07,467.22 424.86,431.03C423.97,421.39 422.92,411.67 424.08,402C424.65,385.03 429.56,368.57 435.74,352.87C410.95,349.36 386.18,345.71 361.41,342.02C345.94,339.72 330.35,338.12 315.01,334.96C310.81,334.23 307.94,330.19 307.73,326.08C307.35,319.3 309.43,312.71 310.05,306C310.3,299.64 316.44,293.95 322.91,295.23C336.02,297.03 348.93,300.47 362.2,301.18C380.57,303.74 398.93,306.36 417.28,309.11C420.09,309.5 422.93,309.53 425.76,309.55C436.76,315.45 447.03,322.58 457.01,330.04C460.81,332.58 465.05,335.63 469.85,335.07C474.94,333.68 479.06,330.15 483.7,327.78C487.56,325.44 492.5,323.42 493.96,318.73C495.35,314.53 493.99,310.03 491.56,306.51C488.56,301.99 485.47,297.52 482.31,293.11C494.4,281.79 508.83,273.41 523.03,265.05C516.59,260.33 511.95,253.05 511.54,244.96C511.03,238.83 513.13,232.12 509.66,226.53C507.34,222.28 503.4,219.26 499.36,216.75C485.27,207.47 473.73,193.33 470.1,176.6C468.12,168.95 467.89,160.84 469.09,153.05C469.23,150.46 472.02,149.78 473.87,148.68C478.16,146.71 482.24,144.29 486.62,142.53Z" transform="matrix(1,0,0,1,-7.9187,-142.14)"/><path fill="#fff" d="M372.73,205.53C377.23,204.67 381.33,202.14 386.01,202.26C390.85,202.34 396.04,201.47 400.53,203.71C410.1,207.93 420.36,210.86 429.06,216.85C438.42,223.09 445.66,232.93 447.47,244.14C446.39,247.01 445.51,250.09 443.53,252.49C439.62,254.36 435.04,253.62 430.99,255.01C429.14,256.54 428.11,258.79 427.02,260.87C421.13,273.43 414.52,285.64 409.19,298.45C402.65,295.34 395.76,293.05 389.32,289.72C385.44,287.94 381.45,285.14 376.96,286.41C369.89,288.47 365.06,294.68 362.2,301.18C348.93,300.47 336.02,297.03 322.91,295.23C316.44,293.95 310.3,299.64 310.05,306C309.43,312.71 307.35,319.3 307.73,326.08C307.94,330.19 310.81,334.23 315.01,334.96C330.35,338.12 345.94,339.72 361.41,342.02C361.68,351.15 364.08,360.01 366.2,368.84C368.48,376.5 371.32,384 373.43,391.73C376.82,404.34 379.27,417.22 383.72,429.52C385.8,433.23 389.27,435.82 392.03,438.98C411.26,460.76 420.22,491.29 415.54,519.98C413.94,530.9 410.32,541.37 406.2,551.56C400.49,563.55 393.34,574.8 385.41,585.44C380.88,590.89 375.31,595.39 370.95,600.98C365.05,606.87 359.36,613.09 355.15,620.33C352.08,625.78 352.42,632.56 348.65,637.68C345.12,642.93 340.19,648.27 333.78,649.56C330.02,648.8 326.17,647.71 322.33,648.5C318.22,649.32 315.07,652.29 311.8,654.68C309.61,656.24 307.16,657.39 304.82,658.69C288.2,665.88 272.77,675.45 256.5,683.33C252.7,685.02 248.84,686.53 244.85,687.72C238.41,690.98 233.71,696.64 228.51,701.49C223.13,706.02 218.17,711 212.7,715.43C212.63,715.49 212.5,715.6 212.43,715.66C204.86,722.01 197.61,728.73 190.08,735.13C186.13,736.55 181.83,737.75 177.63,736.79C173.92,736.03 170.54,734.23 167.3,732.34C159.56,726.69 155.68,717.55 149.86,710.19C139.67,694.61 129.58,678.7 123.15,661.11C121.3,656.69 120.73,651.86 118.83,647.45C114.61,639.51 109.72,631.92 104.25,624.79C98.59,618.91 94.6,611.74 90.09,605C82.18,591.8 74.95,578.08 69.8,563.55C69.2,561.04 68.87,558.47 68.09,556.01C66.92,552.49 67.79,548.73 67.18,545.14C64.59,537.85 60.99,530.89 56.34,524.69C50.98,517.75 44.84,511.48 39.42,504.59C26.96,488.68 16.83,470.49 12.61,450.58C8.77,437.53 6.85,423.78 8.53,410.22C10.24,402.27 18.02,397.45 25.42,395.66C31.79,394.82 38.43,395.27 44.42,397.75C61.23,402.59 75.89,412.98 92.91,417.26C106.34,420.88 120.39,418.86 133.96,417.36C139.03,417.63 143.95,416.23 149,416.27C164.12,414.84 179.32,414.35 194.3,411.68C205.03,411.38 215.21,407.62 225.76,406.05C233.23,404.33 240.79,402.91 248.42,402.11C258.47,400.06 268.75,399.27 279.01,399.2C283.58,399.18 288.28,398.99 292.67,400.55C297.43,388.1 301.11,375.19 303.37,362.05C304.26,350.38 303.19,338.64 303.88,326.96C304.85,321.91 304.01,316.74 304.77,311.67C306.12,298.18 303.43,283.65 309.99,271.15C320.41,249.31 336.5,230.08 356.53,216.43C361.71,212.54 366.4,207.53 372.73,205.53M397.35,238.22C392.9,239.88 393.17,246.97 397.21,248.96C400.72,250.73 407.08,248.67 406.57,244.01C407.25,239.27 401.29,235.97 397.35,238.22Z" transform="matrix(1,0,0,1,-7.9187,-142.14)"/><path fill="#f6842e" d="M447.47,244.14C449.09,245.63 450.83,247.04 452.19,248.79C462.38,263.46 471.9,278.6 482.31,293.11C485.47,297.52 488.56,301.99 491.56,306.51C493.99,310.03 495.35,314.53 493.96,318.73C492.5,323.42 487.56,325.44 483.7,327.78C479.06,330.15 474.94,333.68 469.85,335.07C465.05,335.63 460.81,332.58 457.01,330.04C447.03,322.58 436.76,315.45 425.76,309.55C420.92,304.92 414.91,301.83 409.19,298.45C414.52,285.64 421.13,273.43 427.02,260.87C428.11,258.79 429.14,256.54 430.99,255.01C435.04,253.62 439.62,254.36 443.53,252.49C445.51,250.09 446.39,247.01 447.47,244.14Z" transform="matrix(1,0,0,1,-7.9187,-142.14)"/><path fill="#f6842e" d="M322.33,648.5C326.17,647.71 330.02,648.8 333.78,649.56C334.61,653.02 335.43,656.51 335.69,660.07C337.07,677.67 341.02,694.97 346.15,711.8C347.33,715.44 351.06,717 354.53,717.62C361.44,719.82 368.77,718.9 375.82,720.31C381.09,721.46 386.49,721.07 391.83,721.39C402.12,722.9 412.56,721.91 422.92,722.27C425.43,722.52 428.32,723.12 429.77,725.43C430.9,731.28 424.8,734.64 422.14,739.03C428.09,744.27 435.92,748.13 439.28,755.71C441.11,759.43 437.89,763 435.12,765.12C430.19,768.42 424.15,769.38 418.41,770.33C414.15,771.16 409.67,770.35 405.53,771.9C406.43,778.41 407.55,785.04 406.54,791.61C405.86,794.79 402.26,796.46 399.26,795.73C393.85,794.58 389.32,791.22 384.95,788.04C377.39,781.94 369.94,775.7 362.61,769.34C350.2,759.17 339.22,747.43 327.84,736.14C325.59,733.7 323.18,731.07 322.31,727.8C321.67,721.22 322.6,714.6 322.36,708.01C322.64,699.6 320.45,691.41 318.91,683.22C317.28,673.52 312.71,664.52 311.8,654.68C315.07,652.29 318.22,649.32 322.33,648.5Z" transform="matrix(1,0,0,1,-7.9187,-142.14)"/><path fill="#f6842e" d="M212.43,715.66C212.5,715.6 212.63,715.49 212.7,715.43C212.63,715.49 212.5,715.6 212.43,715.66Z" transform="matrix(1,0,0,1,-7.9187,-142.14)"/><path fill="#f6842e" d="M167.3,732.34C170.54,734.23 173.92,736.03 177.63,736.79C181.83,737.75 186.13,736.55 190.08,735.13C189.24,736.1 188.39,737.06 187.55,738.04C188.49,747.34 187.25,756.75 188.65,766.03C188.55,772.39 189.78,778.66 189.83,785.01C190.38,790.38 191.16,796.06 194.35,800.58C196.47,804.21 200.23,806.38 203.89,808.19C217.73,813.91 230.81,821.26 244.28,827.75C252.83,831.71 260.41,837.52 269.3,840.75C276.59,844.6 286.31,845.42 290.99,853.01C292.69,855.04 291.14,858.01 289.06,859.09C284.23,862.14 278.3,860.9 272.96,862.02C267.08,863.3 260.49,859.31 255.19,863.29C248.44,868.14 249.55,877.35 248.57,884.63C246.92,887.45 243.6,889.4 240.28,888.68C229.96,887.16 221.69,880.12 211.92,876.98C208.57,875.93 204.56,873.86 201.31,876.31C197.03,879.72 196.72,885.67 195.51,890.6C194.78,894.78 189.36,893.85 186.23,893.77C182.42,892.42 179.6,888.14 180.21,884C180.81,872.76 183.53,861.53 181.85,850.25C179.88,837.53 176.44,825.01 175.97,812.1C174.01,801.43 173.9,790.57 172.4,779.83C172.33,773.69 171.78,767.59 170.6,761.55C169.87,751.78 169.05,741.99 167.3,732.34Z" transform="matrix(1,0,0,1,-7.9187,-142.14)"/></g></svg>
